icons/circle/src/categories/32/applications-development.svg

<?xml version="1.0" encoding="UTF-8" standalone="no"?>
<!-- Created with Inkscape (http://www.inkscape.org/) -->

<svg
   xmlns:dc="http://purl.org/dc/elements/1.1/"
   xmlns:cc="http://creativecommons.org/ns#"
   xmlns:rdf="http://www.w3.org/1999/02/22-rdf-syntax-ns#"
   xmlns:svg="http://www.w3.org/2000/svg"
   xmlns="http://www.w3.org/2000/svg"
   xmlns:xlink="http://www.w3.org/1999/xlink"
   xmlns:sodipodi="http://sodipodi.sourceforge.net/DTD/sodipodi-0.dtd"
   xmlns:inkscape="http://www.inkscape.org/namespaces/inkscape"
   width="32"
   version="1.1"
   height="32"
   viewBox="0 0 32 32"
   id="svg30"
   sodipodi:docname="applications-development.svg"
   inkscape:version="0.92.4 (5da689c313, 2019-01-14)">
  <sodipodi:namedview
     pagecolor="#ffffff"
     bordercolor="#666666"
     borderopacity="1"
     objecttolerance="10"
     gridtolerance="10"
     guidetolerance="10"
     inkscape:pageopacity="0"
     inkscape:pageshadow="2"
     inkscape:window-width="1366"
     inkscape:window-height="710"
     id="namedview32"
     showgrid="false"
     inkscape:zoom="3.6875"
     inkscape:cx="-11.498435"
     inkscape:cy="-0.38596288"
     inkscape:window-x="0"
     inkscape:window-y="0"
     inkscape:window-maximized="1"
     inkscape:current-layer="layer1" />
  <defs
     id="defs5455">
    <linearGradient
       id="linearGradient855">
      <stop
         id="stop851"
         style="stop-color:#0578ff;stop-opacity:1" />
      <stop
         id="stop853"
         style="stop-color:#42ccff;stop-opacity:1"
         offset="1" />
    </linearGradient>
    <linearGradient
       id="linearGradient4256">
      <stop
         style="stop-color:#d2e6fe;stop-opacity:1"
         id="stop4258" />
      <stop
         offset="1"
         style="stop-color:#f4f9ff;stop-opacity:1"
         id="stop4260" />
    </linearGradient>
    <linearGradient
       id="linearGradient4232">
      <stop
         style="stop-color:#3889e9"
         id="stop4234-0" />
      <stop
         offset="1"
         style="stop-color:#5ea5fb"
         id="stop4236" />
    </linearGradient>
    <linearGradient
       inkscape:collect="always"
       xlink:href="#linearGradient4232"
       id="linearGradient3426"
       y1="545.79797"
       y2="517.79797"
       x2="0"
       gradientUnits="userSpaceOnUse" />
    <linearGradient
       inkscape:collect="always"
       xlink:href="#linearGradient4256"
       id="linearGradient4291"
       y1="23"
       y2="8"
       x2="0"
       gradientUnits="userSpaceOnUse" />
    <linearGradient
       inkscape:collect="always"
       xlink:href="#linearGradient855"
       id="linearGradient849"
       x1="400.72031"
       y1="546.94684"
       x2="400.51846"
       y2="516.84088"
       gradientUnits="userSpaceOnUse" />
    <filter
       inkscape:collect="always"
       style="color-interpolation-filters:sRGB"
       id="filter875"
       x="-0.033881914"
       width="1.0677638"
       y="-0.038400563"
       height="1.0768011">
      <feGaussianBlur
         inkscape:collect="always"
         stdDeviation="0.23999689"
         id="feGaussianBlur877" />
    </filter>
    <filter
       inkscape:collect="always"
       style="color-interpolation-filters:sRGB"
       id="filter897"
       x="-0.036"
       width="1.072"
       y="-0.036"
       height="1.072">
      <feGaussianBlur
         inkscape:collect="always"
         stdDeviation="0.45"
         id="feGaussianBlur899" />
    </filter>
  </defs>
  <metadata
     id="metadata5458">
    <rdf:RDF>
      <cc:Work
         rdf:about="">
        <dc:format>image/svg+xml</dc:format>
        <dc:type
           rdf:resource="http://purl.org/dc/dcmitype/StillImage" />
      </cc:Work>
    </rdf:RDF>
  </metadata>
  <g
     inkscape:label="Capa 1"
     inkscape:groupmode="layer"
     id="layer1"
     transform="matrix(1 0 0 1 -384.57143 -515.798)">
    <circle
       r="15"
       id="circle879"
       style="fill:#000000;stroke-width:4;fill-opacity:1;filter:url(#filter897);opacity:0.25"
       cy="531.79797"
       cx="400.57144" />
    <circle
       cx="400.57144"
       cy="531.79797"
       style="fill:url(#linearGradient849);stroke-width:4;fill-opacity:1"
       id="path3377"
       r="15" />
    <path
       style="shape-rendering:auto;color-interpolation-filters:linearRGB;stroke-opacity:0.313725;fill:#fcfcfc;image-rendering:auto;fill-opacity:0.058824;text-rendering:auto;color:#000000;color-rendering:auto;color-interpolation:sRGB"
       id="rect4160"
       d="M 14 4.1699219 A 11.999958 11.999958 0 0 0 13 4.390625 L 13 8 L 9 8 L 9 6.2714844 A 11.999958 11.999958 0 0 0 8 7.0742188 L 8 8 L 7.0722656 8 A 11.999958 11.999958 0 0 0 6.265625 9 L 8 9 L 8 13 L 4.3945312 13 A 11.999958 11.999958 0 0 0 4.1816406 14 L 8 14 L 8 18 L 4.1699219 18 A 11.999958 11.999958 0 0 0 4.390625 19 L 8 19 L 8 23 L 6.2714844 23 A 11.999958 11.999958 0 0 0 7.0742188 24 L 8 24 L 8 24.927734 A 11.999958 11.999958 0 0 0 9 25.734375 L 9 24 L 13 24 L 13 27.603516 A 11.999958 11.999958 0 0 0 14 27.818359 L 14 24 L 18 24 L 18 27.830078 A 11.999958 11.999958 0 0 0 19 27.609375 L 19 24 L 23 24 L 23 25.728516 A 11.999958 11.999958 0 0 0 24 24.925781 L 24 24 L 24.927734 24 A 11.999958 11.999958 0 0 0 25.734375 23 L 24 23 L 24 19 L 27.603516 19 A 11.999958 11.999958 0 0 0 27.818359 18 L 24 18 L 24 14 L 27.830078 14 A 11.999958 11.999958 0 0 0 27.609375 13 L 24 13 L 24 9 L 25.728516 9 A 11.999958 11.999958 0 0 0 24.925781 8 L 24 8 L 24 7.0722656 A 11.999958 11.999958 0 0 0 23 6.265625 L 23 8 L 19 8 L 19 4.3945312 A 11.999958 11.999958 0 0 0 18 4.1816406 L 18 8 L 14 8 L 14 4.1699219 z M 9 9 L 13 9 L 13 13 L 9 13 L 9 9 z M 14 9 L 18 9 L 18 13 L 14 13 L 14 9 z M 19 9 L 23 9 L 23 13 L 19 13 L 19 9 z M 9 14 L 13 14 L 13 18 L 9 18 L 9 14 z M 14 14 L 18 14 L 18 18 L 14 18 L 14 14 z M 19 14 L 23 14 L 23 18 L 19 18 L 19 14 z M 9 19 L 13 19 L 13 23 L 9 23 L 9 19 z M 14 19 L 18 19 L 18 23 L 14 23 L 14 19 z M 19 19 L 23 19 L 23 23 L 19 23 L 19 19 z "
       transform="matrix(1 0 0 1 384.57143 515.798)" />
    <ellipse
       cx="400.57138"
       cy="531.79791"
       style="fill:url(#linearGradient3426);stroke-width:4"
       id="ellipse4233" />
    <path
       style="fill:#ffffff;opacity:0.2;stroke-width:3.42857"
       id="circle4238"
       d="M 16 4 A 11.999958 11.999958 0 0 0 4 16 A 11.999958 11.999958 0 0 0 16 28 A 11.999958 11.999958 0 0 0 28 16 A 11.999958 11.999958 0 0 0 16 4 z M 16 5 A 10.999958 10.999958 0 0 1 27 16 A 10.999958 10.999958 0 0 1 16 27 A 10.999958 10.999958 0 0 1 5 16 A 10.999958 10.999958 0 0 1 16 5 z "
       transform="matrix(1 0 0 1 384.57143 515.798)" />
    <path
       transform="matrix(1 0 0 1 384.57143 515.798)"
       d="M 18.142578 8.0136719 C 17.095174 8.0907994 16 8.4956987 15 8.9960938 C 17 8.9960938 18 9.9953037 19 10.996094 L 21 12.998047 L 21 14 L 22 15 L 25 11.998047 L 24 10.996094 L 23 10.996094 L 21 8.9960938 C 20.189615 8.1871888 19.189982 7.9365444 18.142578 8.0136719 z M 19 11 L 15 15 L 14 15 L 8 21 L 10 23 L 16 17 L 16 16 L 20 12 L 19 11 z "
       id="path857"
       style="fill:#000000;fill-rule:evenodd;filter:url(#filter875);opacity:0.25" />
    <path
       style="fill:url(#linearGradient4291);fill-rule:evenodd"
       id="path4247"
       d="M 18.142578 8.0136719 C 17.095174 8.0907994 16 8.4956987 15 8.9960938 C 17 8.9960938 18 9.9953037 19 10.996094 L 21 12.998047 L 21 14 L 22 15 L 25 11.998047 L 24 10.996094 L 23 10.996094 L 21 8.9960938 C 20.189615 8.1871888 19.189982 7.9365444 18.142578 8.0136719 z M 19 11 L 15 15 L 14 15 L 8 21 L 10 23 L 16 17 L 16 16 L 20 12 L 19 11 z "
       transform="matrix(1 0 0 1 384.57143 515.798)" />
  </g>
</svg>

<?xml version="1.0" encoding="UTF-8"?>
<svg width="32" height="32" version="1.1" viewBox="0 0 32 32" xmlns="http://www.w3.org/2000/svg" xmlns:cc="http://creativecommons.org/ns#" xmlns:dc="http://purl.org/dc/elements/1.1/" xmlns:rdf="http://www.w3.org/1999/02/22-rdf-syntax-ns#" xmlns:xlink="http://www.w3.org/1999/xlink">
 <defs>
  <linearGradient id="linearGradient3426" x2="0" y1="545.8" y2="517.8" gradientUnits="userSpaceOnUse">
   <stop stop-color="#3889e9" offset="0"/>
   <stop stop-color="#5ea5fb" offset="1"/>
  </linearGradient>
  <linearGradient id="linearGradient4291" x2="0" y1="23" y2="8" gradientUnits="userSpaceOnUse">
   <stop stop-color="#d2e6fe" offset="0"/>
   <stop stop-color="#f4f9ff" offset="1"/>
  </linearGradient>
  <filter id="filter875" x="-.033882" y="-.038401" width="1.0678" height="1.0768" color-interpolation-filters="sRGB">
   <feGaussianBlur stdDeviation="0.23999689"/>
  </filter>
  <linearGradient id="linearGradient863" x1="399.57" x2="399.57" y1="545.8" y2="517.8" gradientUnits="userSpaceOnUse">
   <stop stop-color="#0578ff" offset="0"/>
   <stop stop-color="#42ccff" offset="1"/>
  </linearGradient>
 </defs>
 <metadata>
  <rdf:RDF>
   <cc:Work rdf:about="">
    <dc:format>image/svg+xml</dc:format>
    <dc:type rdf:resource="http://purl.org/dc/dcmitype/StillImage"/>
    <dc:title/>
   </cc:Work>
  </rdf:RDF>
 </metadata>
 <g transform="translate(-384.57 -515.8)">
  <rect x="385.57" y="516.8" width="30" height="30" rx="8" ry="8" fill="url(#linearGradient863)"/>
  <path transform="translate(384.57 515.8)" d="m8 5v3h-3v1h3v4h-3v1h3v4h-3v1h3v4h-3v1h3v3h1v-3h4v3h1v-3h4v3h1v-3h4v3h1v-3h3v-1h-3v-4h3v-1h-3v-4h3v-1h-3v-4h3v-1h-3v-3h-1v3h-4v-3h-1v3h-4v-3h-1v3h-4v-3h-1zm1 4h4v4h-4v-4zm5 0h4v4h-4v-4zm5 0h4v4h-4v-4zm-10 5h4v4h-4v-4zm5 0h4v4h-4v-4zm5 0h4v4h-4v-4zm-10 5h4v4h-4v-4zm5 0h4v4h-4v-4zm5 0h4v4h-4v-4z" color="#000000" color-rendering="auto" fill="#fcfcfc" fill-opacity=".058824" image-rendering="auto" shape-rendering="auto" stroke-opacity=".31372"/>
  <ellipse cx="400.57" cy="531.8" fill="url(#linearGradient3426)" stroke-width="4"/>
  <path transform="translate(384.57 515.8)" d="m18.143 8.0137c-1.0474 0.077128-2.1426 0.48203-3.1426 0.98242 2 0 3 0.99921 4 2l2 2.002v1.002l1 1 3-3.002-1-1.002h-1l-2-2c-0.81038-0.8089-1.81-1.0595-2.8574-0.98242zm0.85742 2.9863-4 4h-1l-6 6 2 2 6-6v-1l4-4-1-1z" fill-rule="evenodd" filter="url(#filter875)" opacity=".25"/>
  <path transform="translate(384.57 515.8)" d="m18.143 8.0137c-1.0474 0.077128-2.1426 0.48203-3.1426 0.98242 2 0 3 0.99921 4 2l2 2.002v1.002l1 1 3-3.002-1-1.002h-1l-2-2c-0.81038-0.8089-1.81-1.0595-2.8574-0.98242zm0.85742 2.9863-4 4h-1l-6 6 2 2 6-6v-1l4-4-1-1z" fill="url(#linearGradient4291)" fill-rule="evenodd"/>
  <path transform="translate(384.57 515.8)" d="m9 4c-2.77 0-5 2.23-5 5v14c0 2.77 2.23 5 5 5h14c2.77 0 5-2.23 5-5v-14c0-2.77-2.23-5-5-5h-14zm0 1h14c2.216 0 4 1.784 4 4v14c0 2.216-1.784 4-4 4h-14c-2.216 0-4-1.784-4-4v-14c0-2.216 1.784-4 4-4z" fill="#fff" opacity=".25"/>
 </g>
</svg>
